!!!!SEGMENT: pl-kk--kk-i-273--001_anonim--rorate-caeli-desuper.krn
!!!cenid: 17xx:2073
!!!COM: Anonim
!!!COM-rismid: pe30004985
!!!CDT:
!!!CNT:
!!!OTL: Rorate caeli desuper
!!!PDT:
!!!AGN: Sacred
!!!SMS-siglum: PL-Kk
!!!SMS-shelfmark: Kk.I.273
!!!SMS-shelfwork: 001 W
!!!SMS-variant:
!!!SMS-altvar:
!!!NIFC-rismid: 1001147454
!!!URL-scan: http://repozytorium.nifc.pl/skany/pl-kk-nut--i-273
!!!ONB-nifc: UWAGA: utwory w zbiorze: 1. Rorate caeli desuper, 2. Tollite portas, 3. Ecce virgo concipiet, 4. Alleluia post partum Virgo
!!!AIN: 1 alto 2 empty 1 tenor 1 vox
!!!key:
**kern	**text	**fba	**kern	**text	**fba	**kern	**text	**kern	**text	**kern	**text
*part5	*part5	*	*part4	*part4	*	*part3	*part3	*part2	*part2	*part1	*part1
*staff5	*staff5	*	*staff4	*staff4	*	*staff3	*staff3	*staff2	*staff2	*staff1	*staff1
*group2	*	*	*group1	*	*	*group1	*	*group1	*	*group1	*
*Iempty	*	*	*Iempty	*	*	*Itenor	*	*Ialto	*	*Ivox	*
*I"Baſso Ripieno.	*	*	*I"Baſso	*	*	*I"Tenore	*	*I"Alto.	*	*I"Canto.	*
*I'B rip	*	*	*I'B	*	*	*I'T	*	*I'A	*	*I'S	*
*clefF4	*	*	*clefF4	*	*	*clefC4	*	*clefC3	*	*clefC1	*
*k[]	*	*	*k[]	*	*	*k[]	*	*k[]	*	*k[]	*
*C:	*	*	*C:	*	*	*C:	*	*C:	*	*C:	*
*M3/2	*	*	*M3/2	*	*	*M3/2	*	*M3/2	*	*M3/2	*
*	*	*	*	*	*	*2\right	*	*2\right	*	*	*
!	!	!	!LO:TX:a:t=à Capella	!	!	!LO:TX:a:t=à Capella	!	!LO:TX:a:t=à Capella	!	!LO:TX:a:t=à Capella	!
2C/	Ro-	.	2C/	Ro-	.	2c\	Ro-	2e\	Ro-	2g/	Ro-
=1	=1	=1	=1	=1	=1	=1	=1	=1	=1	=1	=1
*2\right	*	*	*2\right	*	*	*	*	*	*	*	*
2G\	-ra-	.	2G\	-ra-	.	2B\	-ra-	2d\	-ra-	2g/	-ra-
2G,<\	-te	.	2G,<\	-te	.	2B,<\	-te	2d\	-te	2g/	-te
*	*ij	*	*	*ij	*	*	*ij	*	*ij	*	*ij
2G\	Ro-	.	2G\	Ro-	.	2B\	Ro-	2d\	Ro-	2g/	Ro-
=2	=2	=2	=2	=2	=2	=2	=2	=2	=2	=2	=2
2C/	-ra-	.	2C/	-ra-	.	2c\	-ra-	2e\	-ra-	2g/	-ra-
2C,</	-te	.	2C/	-te	.	2c,<\	-te	2e,<\	-te	2g,</	-te
*	*Xij	*	*	*Xij	*	*	*Xij	*	*Xij	*2\right	*Xij
2GG/	ro-	.	2GG/	ro-	.	2d\	Ro-	2g\	Ro-	2b\	Ro-
=3	=3	=3	=3	=3	=3	=3	=3	=3	=3	=3	=3
1D	-ra-	.	1D	-ra-	.	1d	-ra-	1f#X	-ra-	1a	-ra-
2D\	-te	.	2D\	-te	.	2d\	-te	2f#\	-te	2a\	-te
=4	=4	=4	=4	=4	=4	=4	=4	=4	=4	=4	=4
*	*ij	*	*	*	*	*	*ij	*	*ij	*	*ij
2D\	ro-	.	2D\	ro-	.	2d\	Ro-	2f#X\	Ro-	2a\	Ro-
2G\	-ra-	.	2G\	-ra-	.	2d\	-ra-	2g\	-ra-	2b\	-ra-
2F#X\	-te	.	2F#X\	-te	.	2d\	-te	2d\	-te	2a\	-te
*	*Xij	*	*	*	*	*	*Xij	*	*Xij	*	*Xij
=5	=5	=5	=5	=5	=5	=5-	=5-	=5	=5	=5	=5
2.G\	cae-	.	2.G\	Cae-	.	1d	Cae-	1g	Cae-	1b	Cae-
4G\	-li	.	4G\	-li	.	.	.	.	.	.	.
2c\	de	.	2c\	de	.	2e\	-li	2g,<\	-li	2cc\	-li
=6	=6	=6	=6	=6	=6	=6-	=6-	=6	=6	=6	=6
2B\	.	.	2B\	.	.	2d\	de	1g	de-	(2g/	de
2.A\	su-	.	2.A\	.	.	2.c\	.	.	.	2.a\)	.
*	*	*	*	*	*	*	*	*custos:g	*	*	*
.	.	.	.	.	.	.	.	2f#X\	-su-	.	.
4A\	-per	.	4A\	su-	.	4c\	su-	.	.	4a\	su-
!	!	!	!	!	!	!	!	!LO:LB:g=original	!	!	!
=7-	=7-	=7	=7	=7	=7	=7	=7	=7	=7	=7	=7
*	*	*	*custos:c	*	*	*	*	*	*	*custos:cc	*
1.G	.	.	1.G	-per	.	1.B	-per	1.g,<	-per	1.b	-per
!	!	!	!LO:LB:g=original	!	!	!	!	!	!	!LO:LB:g=original	!
=8	=8	=8	=8	=8	=8	=8	=8	=8	=8	=8	=8
2c\	et	.	2c\	et	.	2e\	et	2g\	et	2cc\	et
2c\	nu-	.	2c\	nu-	.	2e\	nu-	2g\	nu-	2cc\	nu-
2B\	-bes	.	2B\	-bes	.	2d\	-bes	2g\	-bes	2dd\	-bes
!	!	!	!	!	!	!LO:LB:g=original	!	!	!	!	!
=9	=9	=9	=9	=9	=9	=9	=9	=9	=9	=9	=9
1c	plu-	.	1c	plu-	.	1e	plu-	1g	plu-	1cc	plu-
*custos:A	*	*	*	*	*	*	*	*	*	*	*
2G\	-ant	.	2G\	-ant	.	2d\	-ant	2g\	-ant	2b\	-ant
!LO:LB:g=original	!	!	!	!	!	!	!	!	!	!	!
=10	=10	=10	=10	=10	=10	=10	=10	=10	=10	=10	=10
*	*ij	*	*	*	*	*	*	*	*ij	*	*ij
2.A\	plu-	.	2.A\	plu-	.	2.c\	plu-	1fn	plu-	(<1a	plu-
4B\	.	.	4B\	.	.	4d\	.	.	.	.	.
2c\	.	.	2c\	.	.	2e\	.	2e\	-ant	2g/)	.
*	*	*	*	*	*	*	*	*	*Xij	*	*
=11	=11	=11	=11	=11	=11	=11-	=11-	=11	=11	=11	=11
2F\	-ant	.	2F\	-ant	.	2c\	-ant	2f\	Ju-	2a\	-ant
*	*Xij	*	*	*	*	*	*	*	*	*	*Xij
1G	Ju-	.	1G	Ju-	.	2c\	Ju-	1d	.	1g	Ju-
.	.	.	.	.	.	2B\	.	.	.	.	.
=12	=12	=12	=12	=12	=12	=12	=12	=12	=12	=12	=12
1C,<	-stum	.	1C,<	-stum	.	1c,<	-stum	1e,<	-stum	1g,<	-stum
2c\	a-	.	2c\	a-	.	2Gn/	a-	2e\	a-	2cc\	a-
=13	=13	=13	=13	=13	=13	=13	=13	=13	=13	=13	=13
1G#X	-pe-	.	1G#X	-pe-	.	1G#X	-pe-	1e	-pe-	1b	-pe-
2G#\	-ri-	.	2G#\	-ri-	.	2G#/	-ri-	2e\	-ri-	2b\	-ri-
=14	=14	=14	=14	=14	=14	=14	=14	=14	=14	=14	=14
1A	-a-	.	1A	-a-	.	1c	-a-	1e	-a-	1a	-a-
2E\	-tur	.	2E\	-tur	.	2e\	-tur	2e\	-tur	2b\	-tur
=15	=15	=15	=15	=15	=15	=15	=15	=15	=15	=15	=15
2F\	ter-	.	2F\	ter-	.	2A\	ter-	2c/	ter-	2a\	ter-
2F\	-ra	.	2F\	-ra	.	2c\	-ra	2e,<\	-ra	2a\	-ra
2D/	et	.	2D\	et	.	2d\	et	2f\	et	2b\	et
=16	=16	=16	=16	=16	=16	=16	=16	=16	=16	=16	=16
2.E\	ger-	.	2.E\	ger-	.	2.B\	ger-	2.e\	ger-	2.g#X/	ger-
4E\	-mi-	.	4E\	-mi-	.	4B\	-mi-	4e\	-mi-	4g#/	-mi-
2E\	-net	.	2E\	-net	.	2B\	-net	2e\	-net	2g#/	-net
!	!	!	!LO:LB:g=original	!	!	!	!	!LO:LB:g=original	!	!	!
=17	=17	=17	=17	=17	=17	=17	=17	=17	=17	=17	=17
*	*ij	*	*	*ij	*	*	*ij	*	*	*	*ij
2.E\	ger-	.	2.E\	ger-	.	2.c\	ger-	2.e\	ger-	2.a\	ger-
4E\	-mi-	.	4E\	-mi-	.	4c\	-mi-	4e\	-mi-	4a\	-mi-
2E\	-net	.	2E\	-net	.	2c\	-net	2e\	-net	2a\	-net
*	*Xij	*	*	*Xij	*	*	*Xij	*	*	*	*Xij
!	!	!	!	!	!	!LO:LB:g=original	!	!	!	!LO:LB:g=original	!
=18	=18	=18	=18	=18	=18	=18	=18	=18	=18	=18	=18
*	*	*	*	*	*	*	*	*	*ij	*	*
2.A\	ger-	.	2.A\	ger-	.	2.c\	ger-	2.e\	ger-	2.a\	ger-
4A\	-mi-	.	4A\	-mi-	.	4c\	-mi-	4e\	-mi-	4a\	-mi-
2G\	-net	.	2G\	-net	.	2c\	-net	2e\	-net	2e/	-net
*	*	*	*	*	*	*	*	*	*Xij	*	*
=19	=19	=19	=19	=19	=19	=19	=19	=19	=19	=19	=19
*	*ij	*	*	*ij	*	*	*ij	*	*	*	*ij
2.F\	ger-	.	2.F\	ger-	.	2.A/	ger-	2.fn\	ger-	2.a\	ger-
4E\	-mi-	.	4E\	-mi-	.	4A/	-mi-	4f\	-mi-	4a\	-mi-
2D\	-net	.	2D/	-net	.	2d\	-net	2f\	-net	2b\	-net
*	*Xij	*	*	*Xij	*	*	*Xij	*	*	*	*Xij
!LO:LB:g=original	!	!	!	!	!	!	!	!	!	!	!
=20	=20	=20	=20	=20	=20	=20	=20	=20	=20	=20	=20
1E	Sal-	.	1E	Sal-	.	1B	Sal-	1e	Sal-	1g#X	Sal-
2A\	-va-	.	2A\	-va-	.	2c\	-va-	2e\	-va-	2a\	-va-
=21-	=21-	=21	=21	=21	=21	=21	=21	=21	=21	=21	=21
2D/	-to-	.	2D\	-to-	.	2d\	-to-	2f\	-to-	1a	-to-
1E	.	.	1E	.	.	1B	.	1e	.	.	.
.	.	.	.	.	.	.	.	.	.	2g#X/	.
=22	=22	=22	=22	=22	=22	=22-	=22-	=22	=22	=22	=22
!LO:N:vis=0	!	!	!	!	!	!	!	!	!	!	!
1.AA;	-rem.	.	1.AA	-rem.	.	1.c#X	-rem	1.e,<	-rem	1.a	-rem.
=23||	=23||	=23||	=23||	=23||	=23||	=23||	=23||	=23||	=23||	=23||	=23||
*M3/2	*	*	*	*	*	*	*	*	*	*	*
2D\	Be-	#	2D\	Be-	#	2d\	Be-	2f#X\	Be-	2a\	Be-
2D\	-ne-	.	2D\	-ne-	.	2d\	-ne-	2f#\	-ne-	2a\	-ne-
2D\	-di-	.	2D\	-di-	.	2d\	-di-	2f#\	-di-	2a\	-di-
=24	=24	=24	=24	=24	=24	=24	=24	=24	=24	=24	=24
1G	-xi-	.	1G	-xi-	.	1d	-xi-	1g	-xi-	1b	-xi-
2E\	-ſti	.	2E\	-sti	.	2e\	-sti	2g\	-sti	2cc\	-sti
=25	=25	=25	=25	=25	=25	=25-	=25-	=25	=25	=25	=25
2.F#X\	D(o-	.	2.F#X\	Do-	.	2.d\	Do-	2.a\	Do-	2.cc\	Do-
4F#\	-mi)-	.	4F#\	-mi-	.	4d\	-mi-	4a\	-mi-	4cc\	-mi-
2G\	-ne	.	2G\	-ne	.	2d\	-ne	2g\	-ne	2b\	-ne
!	!	!	!	!	!	!	!	!LO:LB:g=original	!	!	!
=26	=26	=26	=26	=26	=26	=26	=26	=26	=26	=26	=26
1D	ter-	.	1D	ter-	.	1d	ter-	1f#X	ter-	1a	ter-
*	*	*	*custos:C	*	*	*custos:d	*	*	*	*custos:g	*
2BB/	ra(m)	.	2BB/	ram	.	2d\	-ram	2g\	-ram	2b\	-ram
!	!	!	!LO:LB:g=original	!	!	!LO:LB:g=original	!	!	!	!LO:LB:g=original	!
=27	=27	=27	=27	=27	=27	=27	=27	=27	=27	=27	=27
*	*ij	*	*	*	*	*	*	*	*	*	*
2.C/	ter-	.	2.C/	ter-	.	2e\	ter-	2.e\	ter-	2.g\	ter-
.	.	.	.	.	.	2A/	-ram	.	.	.	.
4C,</	-ra(m)	.	4C/	-ram	.	.	.	4f#X|,<\	-ram	4a|\	-ram
*	*Xij	*	*	*	*	*	*	*	*	*	*
2BB/	tu-	.	2BB/	tu-	.	2d\	tu-	2g\	tu-	2b\	tu-
=28	=28	=28	=28	=28	=28	=28	=28	=28	=28	=28	=28
!	!	!	!	!	!	!LO:TX:a:t=d.	!	!	!	!	!
2C/	-am	.	2C,</	-am	.	2d,<\	-am	2g,<\	-am	2g,<\	-am
2AA/	a-	.	2AA/	a-	.	2c\	a-	2f#X\	a-	2a\	a-
2AA/	-ver-	.	2AA/	-ver-	.	2c\	-ver-	2f#\	-ver-	2a\	-ver-
=29	=29	=29	=29	=29	=29	=29	=29	=29	=29	=29	=29
2GG/	-ti-	.	2GG/	-ti-	.	2B\	-ti-	2g\	-ti-	2b\	-ti-
4G\	-ſti	.	4G\	-ſti	.	4B\	-ſti	4g\	-ſti	4b\	-ſti
4G\	ca-	.	4G\	ca-	.	4B\	Cap-	4g\	Cap-	4b\	ca-
4D\	-pti-	.	4D\	-pti-	.	4d\	-ti-	4f#X\	-ti-	4a\	-pti-
4D\	-vi-	.	4D\	-vi-	.	4d\	-vi-	4f#\	-vi-	4a\	-vi-
!LO:LB:g=original	!	!	!	!	!	!	!	!	!	!	!
=30	=30	=30	=30	=30	=30	=30-	=30-	=30	=30	=30	=30
1E	-ta-	.	1E	-ta-	.	1B	-ta-	1g	-ta-	1g	-ta-
1C	-tem	.	2C/	-tem	.	[<2e\	-tem	[<2g\	-tem	[<2cc\	-tem
=31-	=31-	=31	=31	=31	=31	=31	=31	=31	=31	=31	=31
.	.	.	2C/	Ja-	.	2e\]	.	2g\]	.	2cc\]	.
1D	Ja-	.	1D	.	.	1d	Ja-	1f#X	Ja-	1a	Ja-
=32	=32	=32	=32	=32	=32	=32	=32	=32	=32	=32	=32
!LO:N:vis=0	!	!	!	!	!	!	!	!	!	!	!
1.GG;	-cob.	.	1.GG	-cob.	.	1.d	-cob.	1.g	-cob.	1.b	-cob.
=33||	=33||	=33||	=33||	=33||	=33||	=33||	=33||	=33||	=33||	=33||	=33||
2.C/	Glo-	.	2.C/	Glo-	.	2.c\	Glo-	2.e\	Glo-	2.g/	Glo-
4C/	-ri-	.	4C/	-ri-	.	4c\	-ri-	4e\	-ri-	4g/	-ri-
*	*	*	*	*	*	*	*	*custos:fn	*	*	*
2C/	-a	.	2C/	-a	.	2c\	-a	2e\	-a	2g/	-a
!	!	!	!	!	!	!	!	!LO:LB:g=original	!	!	!
=34	=34	=34	=34	=34	=34	=34	=34	=34	=34	=34	=34
2F\	Pa-	.	2F\	Pa-	.	2c\	Pa-	2fn\	Pa-	2a\	Pa-
2F\	-tri	.	2F\	-tri	.	2c\	-tri	2f\	-tri	2a\	-tri
2E\	et	.	2E\	et	.	2c\	et	2g\	et	2cc\	et
=35	=35	=35	=35	=35	=35	=35-	=35-	=35	=35	=35	=35
2.F\	Fi-	.	2.F\	Fi-	.	2.c\	Fi-	2.f\	Fi-	2.a\	Fi-
4F\	-li-	.	4F\	-li-	.	4c\	-li-	4f\	-li-	4a\	-li-
2C/	-o	.	2C/	-o	.	2c\	-o	2e,<\	-o	2g/	-o
!	!	!	!LO:LB:g=original	!	!	!LO:LB:g=original	!	!	!	!LO:LB:g=original	!
=36	=36	=36	=36	=36	=36	=36	=36	=36	=36	=36	=36
1G	et	.	1G	et	.	1B	et	1d	et	1g	et
2G\	Spi-	.	2G\	Spi-	.	2B\	Spi-	2d\	Spi-	2g/	Spi-
=37	=37	=37	=37	=37	=37	=37	=37	=37	=37	=37	=37
2.E\	-ri-	.	2.E\	-ri-	.	2.c\	-ri-	(2.g\	ri-	(2.cc\	-ri-
4F\	.	.	4F\	.	.	4d\	.	4f\	.	4a\)	.
4G\	.	.	4G\	.	.	4B\	.	4e\)	.	(4b\	-tu-
4E\	.	.	4E\	.	.	4c\	.	4g\	.	4g\)	-[i]
=38	=38	=38	=38	=38	=38	=38	=38	=38	=38	=38	=38
2F\	.	.	2F\	.	.	2.c\	.	2.f\	.	2a\	San-
2BB/	-tu-	.	2BB/	-tu-	.	.	.	.	.	[<1g	.
.	.	.	.	.	.	4d\	-tu-	4f\	tu-	.	.
[2C/	-i	.	[2C/	-i	.	[<2c\	-i	[<2e\	-i	.	.
=39	=39	=39	=39	=39	=39	=39	=39	=39	=39	=39	=39
2C/]	.	.	2C/]	.	.	2c\]	.	2e\]	.	1.g]	.
2G\	San-	.	2G\	San-	.	2c\	San-	1d	San-	.	.
2GG/	.	.	2GG/	.	.	2B\	.	.	.	.	.
!LO:LB:g=original	!	!	!	!	!	!	!	!	!	!	!
=40	=40	=40	=40	=40	=40	=40	=40	=40	=40	=40	=40
2C/	-cto	.	2C,</	-cto	.	2c,<\	-cto.	2e,<\	-cto.	2g,</	-cto.
2c\	Si-	.	2c\	Si-	.	2e\	Si-	2g\	Si-	2cc\	Si-
2A\	-cut	.	2A\	-cut	.	2c\	-cut	2f#X\	-cut	2cc\	-cut
=41	=41	=41	=41	=41	=41	=41	=41	=41	=41	=41	=41
2B\	e-	.	2B\	e-	.	2B\	e-	2f#X\	e-	2dd\	e-
2G\	-rat	.	2G\	-rat	.	2e\	-rat	2g\	-rat	2b\	-rat
4A\	in	.	4A\	in	.	4c\	in	4e\	in	4cc\	in
*	*	*	*	*	*	*	*	*custos:d	*	*	*
4A\	prin-	.	4A\	prin-	.	4c\	prin-	4e\	prin-	4cc\	prin-
!	!	!	!	!	!	!	!	!LO:LB:g=original	!	!	!
=42	=42	=42	=42	=42	=42	=42	=42	=42	=42	=42	=42
2.F#X\	-ci-	.	2.F#X\	-ci-	.	2.d\	-ci-	2.d\	-ci-	2.a\	-ci-
4F#\	-pi-	.	4F#\	-pi-	.	4d\	-pi-	4d\	-pi-	4a\	-pi-
2G\	-o	.	2G\	-o	.	2d\	-o	2d\	-o	2b\	-o
=43	=43	=43	=43	=43	=43	=43	=43	=43	=43	=43	=43
2D\	et	.	2D\	et	.	2d\	et	2d\	et	2a,<\	et
2rBB	.	.	2r	.	.	2r	.	(4f#X\	nunc	(4dd\	nunc
.	.	.	.	.	.	.	.	4g\)	.	4ee\)	.
2rBB	.	.	2r	.	.	2r	.	(4f#\	et	(4dd\	et
.	.	.	.	.	.	.	.	4e\)	.	4cc\)	.
=44	=44	=44	=44	=44	=44	=44	=44	=44	=44	=44	=44
2r	.	.	2r	.	.	2r	.	2d\	sem-	2b\	sem-
(4G\	nunc	.	(4G\	nunc	.	(4B\	nunc	2d,<\	-per	2b\	-per
4A\)	.	.	4A\)	.	.	4c\)	.	.	.	.	.
(4G\	et	.	(4G\	et	.	(4B\	et	4d\	et	4b\	et
*	*	*	*	*	*	*custos:G	*	*	*	*	*
4F#X\)	.	.	4F#X\)	.	.	4A\)	.	4d\	in	4b\	in
!	!	!	!LO:LB:g=original	!	!	!LO:LB:g=original	!	!	!	!LO:LB:g=original	!
=45	=45	=45	=45	=45	=45	=45	=45	=45	=45	=45	=45
2.E\	sem-	.	2.E\	sem-	.	2.G/	sem-	2.e\	sae-	2.b\	sae-
4E\	-p(er)	.	4E\	-per	.	4G/	-per	4e\	-cu-	4b\	-cu-
4A\	et	.	4A\	et	.	4c\	et	2e\	-la	2cc\	-la
4A\	in	.	4A\	in	.	4c\	in	.	.	.	.
=46	=46	=46	=46	=46	=46	=46	=46	=46	=46	=46	=46
2F#X\	sae-	.	2F#X\	sae-	.	2A\	sae-	1f#X	sae-	2.dd\	sae-
4F#\	-cu-	.	4F#\	-cu-	.	4A\	-cu-	.	.	.	.
4F#\	-la	.	4F#\	-la	.	4A\	-la	.	.	4dd\	-cu-
[<2G\	sae-	.	[<2G\	sae-	.	2B\	sae-	2d\	-cu-	2dd\	-lo-
=47	=47	=47	=47	=47	=47	=47	=47	=47	=47	=47	=47
2G\]	.	.	2G\]	.	.	2B\	-cu-	2d\	-lo-	2dd\	-rum
1E	-cu-	.	1E	-cu-	.	(1e	-lo-	1g	.	2dd\	A-
.	.	.	.	.	.	.	.	.	.	2cc#X\	.
=48	=48	=48	=48	=48	=48	=48	=48	=48	=48	=48	=48
1.D	-lo-	.	1.D	-lo-	.	1.A)	.	1.f#X	.	1.dd,<	-men
!LO:LB:g=original	!	!	!	!	!	!	!	!	!	!	!
=49	=49	=49	=49	=49	=49	=49	=49	=49	=49	=49	=49
2GG/	-rum	.	2GG/	-rum	.	2B,<\	-rum	2g\	-rum	2g/	in
2rBB	.	.	2rBB	.	.	2r	.	2re	.	2b\	sae-
2rBB	.	.	2rBB	.	.	2r	.	2re	.	4b\	-cu-
.	.	.	.	.	.	.	.	.	.	4b\	-la
=50	=50	=50	=50	=50	=50	=50	=50	=50	=50	=50	=50
2C/	in	.	2C/	in	.	2c\	in	2e\	in	1cc	sae-
2E\	sae-	.	2E\	sae-	.	2c\	sae-	2e\	sae-	.	.
4E\	-cu-	.	4E\	-cu-	.	4c\	-cu-	4e\	-cu-	2g/	-cu-
4E\	-la	.	4E\	-la	.	4c\	-la	4e\	-la	.	.
=51	=51	=51	=51	=51	=51	=51	=51	=51-	=51-	=51	=51
2.F\	sae-	.	2.F\	sae-	.	2.c\	sae-	2.c/	sae-	2.a\	-lo-
4F\	-cu-	.	4F\	-cu-	.	4c\	-cu-	4c/	-cu-	4a\	-rum
2C/	-lo-	.	2C/	-lo-	.	2c\	-lo-	2e\	-lo-	2g/	A-
=52	=52	=52	=52	=52	=52	=52-	=52-	=52	=52	=52	=52
2C/	-ru(m)	.	2C,</	-rum	.	2c,<\	-rum	2e\	-rum	2g,</	-men
2G\	A-	.	2G\	A-	.	(2c\	A-	1d	A-	1g	A-
2GG/	.	.	2GG/	.	.	2B\)	.	.	.	.	.
=53	=53	=53	=53	=53	=53	=53	=53	=53	=53	=53	=53
!LO:N:vis=0	!	!	!	!	!	!LO:N:vis=0	!	!LO:N:vis=0	!	!	!
!LO:TX:b:t=Rorate da Capo	!	!	!	!	!	!	!	!	!	!	!
!LO:TX:t=P:problem=Da Capo tylko w B rip	!	!	!	!	!	!	!	!	!	!	!
1.C;	-men.	.	2C/	-men	.	1.c;	-men	1.e;	-men	1.g	-men.
.	.	.	2r	.	.	.	.	.	.	.	.
.	.	.	2r	.	.	.	.	.	.	.	.
==	==	==	==	==	==	==	==	==	==	==	==
*-	*-	*-	*-	*-	*-	*-	*-	*-	*-	*-	*-
!!!system-decoration: [g1],g2
!!!RDF**kern: > = above
!!!RDF**kern: < = below
!!!RDF**kern: | = vertical stroke
!!!ENC: Andrzej Kubiczek
!!!END: 2021-03-28
!!!ENC: Krzysztof Stępień
!!!END: 2021-03-10
